components/Common/Svg/svgs/recommended.svg

<svg
  width="90"
  height="90"
  viewBox="0 0 90 90"
  fill="none"
  xmlns="http://www.w3.org/2000/svg"
>
  <circle
    opacity="0.5"
    cx="45"
    cy="45"
    r="45"
    fill="#FFE603"
  ></circle>
  <path
    d="M25 64.0714V35C25 33.0109 25.7902 31.1032 27.1967 29.6967C28.6032 28.2902 30.5109 27.5 32.5 27.5H57.5C59.4891 27.5 61.3968 28.2902 62.8033 29.6967C64.2098 31.1032 65 33.0109 65 35V50C65 51.9891 64.2098 53.8968 62.8033 55.3033C61.3968 56.7098 59.4891 57.5 57.5 57.5H35L25 64.0714Z"
    stroke="#171717"
    stroke-width="3"
    stroke-linecap="round"
    stroke-linejoin="round"
  ></path>
  <path
    d="M44.9951 47.3555L39.7048 50.1369L40.7154 44.2457L36.4297 40.074L42.344 39.2169L44.9891 33.8572L47.6343 39.2169L53.5485 40.074L49.2628 44.2457L50.2734 50.1369L44.9951 47.3555Z"
    stroke="#171717"
    stroke-width="3"
    stroke-linecap="round"
    stroke-linejoin="round"
  ></path>
</svg>

<svg width="90" height="90" viewBox="0 0 90 90" fill="none" xmlns="http://www.w3.org/2000/svg"><circle opacity=".5" cx="45" cy="45" r="45" fill="#FFE603"/><path d="M25 64.071V35a7.5 7.5 0 0 1 7.5-7.5h25A7.5 7.5 0 0 1 65 35v15a7.5 7.5 0 0 1-7.5 7.5H35l-10 6.571Z" stroke="#171717" stroke-width="3" stroke-linecap="round" stroke-linejoin="round"/><path d="m44.995 47.355-5.29 2.782 1.01-5.891-4.285-4.172 5.914-.857 2.645-5.36 2.645 5.36 5.914.857-4.285 4.172 1.01 5.89-5.278-2.78Z" stroke="#171717" stroke-width="3" stroke-linecap="round" stroke-linejoin="round"/></svg>
